X: 20551
T: John Murphy's
R: slide
M: 12/8
K: Dmajor
|:B|A2 d F2 G A3 Bcd|e2 d cBA B2 A EFG|
A2 d F2 G ABA Bcd|e2 d cBc d3- d2:|
|:e|f2 A ABA Bcd e3|e2 d cBA B2 A FGA|
[1 f2 A ABA Bcd e3|e2 d cBc d3- d2:|
[2 A2 d F2 G ABA Bcd|e2 d cBc d3- d2||

